;FLAVOR:UltiGCode
;TIME:1447
;MATERIAL:2210
;MATERIAL2:0
;NOZZLE_DIAMETER:0.4
;Generated with Cura_SteamEngine 3.5.1
M82 ;absolute extrusion mode

G92 E0
G10
;LAYER_COUNT:84
;LAYER:0
M107
G0 F4500 X69.819 Y99.644 Z0.27
;TYPE:SKIRT
G11
G1 F1800 X70.468 Y99.188 E0.07496
G1 X71.16 Y98.799 E0.14997
G1 X71.887 Y98.481 E0.22496
G1 X72.643 Y98.238 E0.3
G1 X73.419 Y98.073 E0.37497
G1 X74.207 Y97.987 E0.44988
G1 X74.67 Y97.973 E0.49366
G1 X148.33 Y97.973 E7.45453
G1 X149.122 Y98.013 E7.52946
G1 X149.907 Y98.132 E7.60449
G1 X150.675 Y98.33 E7.67944
G1 X151.42 Y98.605 E7.75449
G1 X152.133 Y98.952 E7.82942
G1 X152.808 Y99.37 E7.90445
G1 X153.437 Y99.853 E7.97939
G1 X154.014 Y100.398 E8.0544
G1 X154.534 Y100.997 E8.12936
G1 X154.99 Y101.646 E8.20431
G1 X155.379 Y102.338 E8.27933
G1 X155.697 Y103.065 E8.35432
G1 X155.94 Y103.821 E8.42936
G1 X156.105 Y104.597 E8.50433
G1 X156.191 Y105.385 E8.57924
G1 X156.205 Y105.848 E8.62301
G1 X156.205 Y113.468 E9.3431
G1 X156.165 Y114.26 E9.41804
G1 X156.046 Y115.045 E9.49307
G1 X155.848 Y115.813 E9.56802
G1 X155.573 Y116.558 E9.64307
G1 X155.226 Y117.271 E9.718
G1 X154.808 Y117.946 E9.79303
G1 X154.325 Y118.575 E9.86797
G1 X153.78 Y119.152 E9.94298
G1 X153.181 Y119.672 E10.01794
G1 X152.532 Y120.128 E10.09289
G1 X151.84 Y120.517 E10.16791
G1 X151.113 Y120.835 E10.2429
G1 X150.357 Y121.078 E10.31794
G1 X149.581 Y121.243 E10.39291
G1 X148.793 Y121.329 E10.46782
G1 X148.33 Y121.343 E10.51159
G1 X74.67 Y121.343 E17.47246
G1 X73.878 Y121.303 E17.5474
G1 X73.093 Y121.184 E17.62243
G1 X72.325 Y120.986 E17.69738
G1 X71.58 Y120.711 E17.77243
G1 X70.867 Y120.364 E17.84736
G1 X70.192 Y119.946 E17.92239
G1 X69.563 Y119.463 E17.99733
G1 X68.986 Y118.918 E18.07234
G1 X68.466 Y118.319 E18.1473
G1 X68.01 Y117.67 E18.22225
G1 X67.621 Y116.978 E18.29727
G1 X67.303 Y116.251 E18.37226
G1 X67.06 Y115.495 E18.4473
G1 X66.895 Y114.719 E18.52227
G1 X66.809 Y113.931 E18.59718
G1 X66.795 Y113.468 E18.64095
G1 X66.795 Y105.848 E19.36104
G1 X66.835 Y105.056 E19.43598
G1 X66.954 Y104.271 E19.51101
G1 X67.152 Y103.503 E19.58596
G1 X67.427 Y102.758 E19.661
G1 X67.774 Y102.045 E19.73594
G1 X68.192 Y101.37 E19.81097
G1 X68.675 Y100.741 E19.88591
G1 X69.22 Y100.164 E19.96091
G1 X69.819 Y99.644 E20.03587
G0 F4500 X70.16 Y99.824
G1 F1800 X70.804 Y99.392 E20.10916
G1 X71.489 Y99.029 E20.18242
G1 X72.208 Y98.737 E20.25575
G1 X72.953 Y98.522 E20.32903
G1 X73.716 Y98.384 E20.4023
G1 X74.67 Y98.323 E20.49264
G1 X148.33 Y98.323 E27.45351
G1 X149.105 Y98.363 E27.52684
G1 X149.871 Y98.482 E27.6001
G1 X150.621 Y98.68 E27.6734
G1 X151.347 Y98.954 E27.74673
G1 X152.04 Y99.301 E27.81997
G1 X152.694 Y99.718 E27.89327
G1 X153.302 Y100.2 E27.96659
G1 X153.857 Y100.742 E28.0399
G1 X154.354 Y101.338 E28.11323
G1 X154.786 Y101.982 E28.18651
G1 X155.149 Y102.667 E28.25977
G1 X155.441 Y103.386 E28.33311
G1 X155.656 Y104.131 E28.40639
G1 X155.794 Y104.894 E28.47966
G1 X155.855 Y105.848 E28.57
G1 X155.855 Y113.468 E29.29009
G1 X155.815 Y114.243 E29.36342
G1 X155.696 Y115.009 E29.43668
G1 X155.498 Y115.759 E29.50998
G1 X155.224 Y116.485 E29.58331
G1 X154.877 Y117.178 E29.65655
G1 X154.46 Y117.832 E29.72985
G1 X153.978 Y118.44 E29.80317
G1 X153.436 Y118.995 E29.87648
G1 X152.84 Y119.492 E29.94981
G1 X152.196 Y119.924 E30.02309
G1 X151.511 Y120.287 E30.09635
G1 X150.792 Y120.579 E30.16969
G1 X150.047 Y120.794 E30.24296
G1 X149.284 Y120.932 E30.31624
G1 X148.33 Y120.993 E30.40657
G1 X74.67 Y120.993 E37.36744
G1 X73.895 Y120.953 E37.44078
G1 X73.129 Y120.834 E37.51403
G1 X72.379 Y120.636 E37.58734
G1 X71.653 Y120.362 E37.66067
G1 X70.96 Y120.015 E37.73391
G1 X70.306 Y119.598 E37.8072
G1 X69.698 Y119.116 E37.88053
G1 X69.143 Y118.574 E37.95383
G1 X68.646 Y117.978 E38.02717
G1 X68.214 Y117.334 E38.10045
G1 X67.851 Y116.649 E38.17371
G1 X67.559 Y115.93 E38.24705
G1 X67.344 Y115.185 E38.32032
G1 X67.206 Y114.422 E38.39359
G1 X67.145 Y113.468 E38.48393
G1 X67.145 Y105.848 E39.20402
G1 X67.185 Y105.073 E39.27736
G1 X67.304 Y104.307 E39.35061
G1 X67.502 Y103.557 E39.42392
G1 X67.776 Y102.831 E39.49725
G1 X68.123 Y102.138 E39.57049
G1 X68.54 Y101.484 E39.64378
G1 X69.022 Y100.876 E39.7171
G1 X69.564 Y100.321 E39.79041
G1 X70.16 Y99.824 E39.86375
G0 F4500 X70.499 Y100.01
G1 F1800 X71.138 Y99.603 E39.93534
G1 X71.816 Y99.265 E40.00693
G1 X72.525 Y99.001 E40.07843
G1 X73.259 Y98.813 E40.15003
G1 X74.008 Y98.704 E40.22155
G1 X74.67 Y98.673 E40.28418
G1 X148.33 Y98.673 E47.24505
G1 X149.086 Y98.713 E47.31659
G1 X149.834 Y98.832 E47.38817
G1 X150.565 Y99.03 E47.45974
G1 X151.272 Y99.304 E47.53139
G1 X151.945 Y99.65 E47.6029
G1 X152.578 Y100.066 E47.67448
G1 X153.164 Y100.546 E47.74607
G1 X153.696 Y101.085 E47.81763
G1 X154.168 Y101.677 E47.88918
G1 X154.575 Y102.316 E47.96078
G1 X154.913 Y102.994 E48.03237
G1 X155.177 Y103.703 E48.10386
G1 X155.365 Y104.437 E48.17546
G1 X155.474 Y105.186 E48.24699
G1 X155.505 Y105.848 E48.30962
G1 X155.505 Y113.468 E49.02971
G1 X155.465 Y114.224 E49.10125
G1 X155.346 Y114.972 E49.17282
G1 X155.148 Y115.703 E49.24439
G1 X154.874 Y116.41 E49.31605
G1 X154.528 Y117.083 E49.38756
G1 X154.112 Y117.716 E49.45914
G1 X153.632 Y118.302 E49.53072
G1 X153.093 Y118.834 E49.60229
G1 X152.501 Y119.306 E49.67384
G1 X151.862 Y119.713 E49.74543
G1 X151.184 Y120.051 E49.81702
G1 X150.475 Y120.315 E49.88852
G1 X149.741 Y120.503 E49.96012
G1 X148.992 Y120.612 E50.03165
G1 X148.33 Y120.643 E50.09427
G1 X74.67 Y120.643 E57.05514
G1 X73.914 Y120.603 E57.12668
G1 X73.166 Y120.484 E57.19826
G1 X72.435 Y120.286 E57.26983
G1 X71.728 Y120.012 E57.34148
G1 X71.055 Y119.666 E57.41299
G1 X70.422 Y119.25 E57.48457
G1 X69.836 Y118.77 E57.55616
G1 X69.304 Y118.231 E57.62772
G1 X68.832 Y117.639 E57.69927
G1 X68.425 Y117 E57.77087
G1 X68.087 Y116.322 E57.84246
G1 X67.823 Y115.613 E57.91395
G1 X67.635 Y114.879 E57.98555
G1 X67.526 Y114.13 E58.05708
G1 X67.495 Y113.468 E58.11971
G1 X67.495 Y105.848 E58.8398
G1 X67.535 Y105.092 E58.91134
G1 X67.654 Y104.344 E58.98291
G1 X67.852 Y103.613 E59.05448
G1 X68.126 Y102.906 E59.12614
G1 X68.472 Y102.233 E59.19765
G1 X68.888 Y101.6 E59.26923
G1 X69.368 Y101.014 E59.34081
G1 X69.907 Y100.482 E59.41238
G1 X70.499 Y100.01 E59.48393
G0 F4500 X70.249 Y100.648
G1 F1800 X70.837 Y100.201 E59.55373
G1 X71.47 Y99.82 E59.62355
G1 X72.14 Y99.509 E59.69335
G1 X72.84 Y99.273 E59.76316
G1 X73.561 Y99.114 E59.83293
G1 X74.296 Y99.033 E59.90281
G1 X74.67 Y99.023 E59.93816
G1 X148.33 Y99.023 E66.89903
G1 X149.068 Y99.063 E66.96888
G1 X149.796 Y99.182 E67.03858
G1 X150.508 Y99.38 E67.10842
G1 X151.194 Y99.653 E67.17819
G1 X151.847 Y99.999 E67.24803
G1 X152.459 Y100.413 E67.31785
G1 X153.022 Y100.891 E67.38765
G1 X153.53 Y101.427 E67.45743
G1 X153.977 Y102.015 E67.52723
G1 X154.358 Y102.648 E67.59705
G1 X154.669 Y103.318 E67.66685
G1 X154.905 Y104.018 E67.73666
G1 X155.064 Y104.739 E67.80643
G1 X155.145 Y105.474 E67.87631
G1 X155.155 Y105.848 E67.91167
G1 X155.155 Y113.468 E68.63176
G1 X155.115 Y114.206 E68.7016
G1 X154.996 Y114.934 E68.77131
G1 X154.798 Y115.646 E68.84115
G1 X154.525 Y116.332 E68.91092
G1 X154.179 Y116.985 E68.98075
G1 X153.765 Y117.597 E69.05058
G1 X153.287 Y118.16 E69.12037
G1 X152.751 Y118.668 E69.19016
G1 X152.163 Y119.115 E69.25996
G1 X151.53 Y119.496 E69.32978
G1 X150.86 Y119.807 E69.39958
G1 X150.16 Y120.043 E69.46939
G1 X149.439 Y120.202 E69.53916
G1 X148.704 Y120.283 E69.60904
G1 X148.33 Y120.293 E69.64439
G1 X74.67 Y120.293 E76.60526
G1 X73.932 Y120.253 E76.67511
G1 X73.204 Y120.134 E76.74481
G1 X72.492 Y119.936 E76.81465
G1 X71.806 Y119.663 E76.88442
G1 X71.153 Y119.317 E76.95426
G1 X70.541 Y118.903 E77.02408
G1 X69.978 Y118.425 E77.09388
G1 X69.47 Y117.889 E77.16366
G1 X69.023 Y117.301 E77.23346
G1 X68.642 Y116.668 E77.30328
G1 X68.331 Y115.998 E77.37308
G1 X68.095 Y115.298 E77.44289
G1 X67.936 Y114.577 E77.51266
G1 X67.855 Y113.842 E77.58254
G1 X67.845 Y113.468 E77.6179
G1 X67.845 Y105.848 E78.33799
G1 X67.885 Y105.11 E78.40783
G1 X68.004 Y104.382 E78.47754
G1 X68.202 Y103.67 E78.54738
G1 X68.475 Y102.984 E78.61715
G1 X68.821 Y102.331 E78.68698
G1 X69.235 Y101.719 E78.75681
G1 X69.713 Y101.156 E78.8266
G1 X70.249 Y100.648 E78.89639
G0 F4500 X70.591 Y100.819
G1 F1800 X71.174 Y100.398 E78.96434
G1 X71.801 Y100.044 E79.03239
G1 X72.462 Y99.761 E79.10034
G1 X73.151 Y99.554 E79.16832
G1 X73.859 Y99.424 E79.23635
G1 X74.67 Y99.373 E79.31314
G1 X148.33 Y99.373 E86.27401
G1 X149.048 Y99.413 E86.34196
G1 X149.758 Y99.532 E86.40999
G1 X150.45 Y99.73 E86.47801
G1 X151.115 Y100.003 E86.54594
G1 X151.747 Y100.348 E86.61399
G1 X152.336 Y100.761 E86.68197
G1 X152.875 Y101.237 E86.74992
G1 X153.359 Y101.769 E86.81789
G1 X153.78 Y102.352 E86.88585
G1 X154.134 Y102.979 E86.95389
G1 X154.417 Y103.64 E87.02184
G1 X154.624 Y104.329 E87.08982
G1 X154.754 Y105.037 E87.15785
G1 X154.805 Y105.848 E87.23464
G1 X154.805 Y113.468 E87.95473
G1 X154.765 Y114.186 E88.02268
G1 X154.646 Y114.896 E88.09072
G1 X154.448 Y115.588 E88.15873
G1 X154.175 Y116.253 E88.22667
G1 X153.83 Y116.885 E88.29471
G1 X153.417 Y117.474 E88.36269
G1 X152.941 Y118.013 E88.43064
G1 X152.409 Y118.497 E88.49861
G1 X151.826 Y118.918 E88.56657
G1 X151.199 Y119.272 E88.63461
G1 X150.538 Y119.555 E88.70256
G1 X149.849 Y119.762 E88.77054
G1 X149.141 Y119.892 E88.83857
G1 X148.33 Y119.943 E88.91536
G1 X74.67 Y119.943 E95.87623
G1 X73.952 Y119.903 E95.94419
G1 X73.242 Y119.784 E96.01222
G1 X72.55 Y119.586 E96.08023
G1 X71.885 Y119.313 E96.14817
G1 X71.253 Y118.968 E96.21621
G1 X70.664 Y118.555 E96.28419
G1 X70.125 Y118.079 E96.35214
G1 X69.641 Y117.547 E96.42011
G1 X69.22 Y116.964 E96.48807
G1 X68.866 Y116.337 E96.55611
G1 X68.583 Y115.676 E96.62406
G1 X68.376 Y114.987 E96.69204
G1 X68.246 Y114.279 E96.76007
G1 X68.195 Y113.468 E96.83686
G1 X68.195 Y105.848 E97.55695
G1 X68.235 Y105.13 E97.62491
G1 X68.354 Y104.42 E97.69294
G1 X68.552 Y103.728 E97.76096
G1 X68.825 Y103.063 E97.82889
G1 X69.17 Y102.431 E97.89693
G1 X69.583 Y101.842 E97.96491
G1 X70.059 Y101.303 E98.03286
G1 X70.591 Y100.819 E98.10083
G0 F4500 X70.932 Y100.996
G1 F1800 X71.51 Y100.601 E98.16699
G1 X72.129 Y100.275 E98.2331
G1 X72.781 Y100.021 E98.29922
G1 X73.458 Y99.844 E98.36535
G1 X74.151 Y99.745 E98.43151
G1 X74.67 Y99.723 E98.48059
G1 X148.33 Y99.723 E105.44146
G1 X149.029 Y99.763 E105.50763
G1 X149.718 Y99.882 E105.5737
G1 X150.389 Y100.08 E105.63982
G1 X151.034 Y100.352 E105.70597
G1 X151.643 Y100.696 E105.77206
G1 X152.209 Y101.108 E105.83822
G1 X152.724 Y101.581 E105.9043
G1 X153.182 Y102.11 E105.97042
G1 X153.577 Y102.688 E106.03658
G1 X153.903 Y103.307 E106.10269
G1 X154.157 Y103.959 E106.16882
G1 X154.334 Y104.636 E106.23494
G1 X154.433 Y105.329 E106.3011
G1 X154.455 Y105.848 E106.35019
G1 X154.455 Y113.468 E107.07028
G1 X154.415 Y114.167 E107.13644
G1 X154.296 Y114.856 E107.20251
G1 X154.098 Y115.527 E107.26863
G1 X153.826 Y116.172 E107.33478
G1 X153.482 Y116.781 E107.40087
G1 X153.07 Y117.347 E107.46703
G1 X152.597 Y117.862 E107.53311
G1 X152.068 Y118.32 E107.59923
G1 X151.49 Y118.715 E107.66539
G1 X150.871 Y119.041 E107.7315
G1 X150.219 Y119.295 E107.79763
G1 X149.542 Y119.472 E107.86375
G1 X148.849 Y119.571 E107.92991
G1 X148.33 Y119.593 E107.979
G1 X74.67 Y119.593 E114.93987
G1 X73.971 Y119.553 E115.00603
G1 X73.282 Y119.434 E115.07211
G1 X72.611 Y119.236 E115.13822
G1 X71.966 Y118.964 E115.20437
G1 X71.357 Y118.62 E115.27047
G1 X70.791 Y118.208 E115.33662
G1 X70.276 Y117.735 E115.4027
G1 X69.818 Y117.206 E115.46883
G1 X69.423 Y116.628 E115.53498
G1 X69.097 Y116.009 E115.60109
G1 X68.843 Y115.357 E115.66722
G1 X68.666 Y114.68 E115.73335
G1 X68.567 Y113.987 E115.7995
G1 X68.545 Y113.468 E115.84859
G1 X68.545 Y105.848 E116.56868
G1 X68.585 Y105.149 E116.63484
G1 X68.704 Y104.46 E116.70092
G1 X68.902 Y103.789 E116.76703
G1 X69.174 Y103.144 E116.83318
G1 X69.518 Y102.535 E116.89928
G1 X69.93 Y101.969 E116.96543
G1 X70.403 Y101.454 E117.03151
G1 X70.932 Y100.996 E117.09764
G0 F4500 X71.272 Y101.179
G1 F1800 X71.844 Y100.812 E117.16186
G1 X72.455 Y100.515 E117.22606
G1 X73.097 Y100.291 E117.29032
G1 X73.76 Y100.145 E117.35447
G1 X74.67 Y100.073 E117.44073
G1 X148.33 Y100.073 E124.4016
G1 X149.008 Y100.113 E124.46579
G1 X149.677 Y100.232 E124.53
G1 X150.327 Y100.429 E124.59418
G1 X150.95 Y100.701 E124.65842
G1 X151.536 Y101.045 E124.72264
G1 X152.078 Y101.455 E124.78686
G1 X152.568 Y101.925 E124.85102
G1 X152.999 Y102.45 E124.91521
G1 X153.366 Y103.022 E124.97943
G1 X153.663 Y103.633 E125.04363
G1 X153.887 Y104.275 E125.10789
G1 X154.033 Y104.938 E125.17204
G1 X154.105 Y105.848 E125.25831
G1 X154.105 Y113.468 E125.9784
G1 X154.065 Y114.146 E126.04258
G1 X153.946 Y114.815 E126.10679
G1 X153.749 Y115.465 E126.17098
G1 X153.477 Y116.088 E126.23522
G1 X153.133 Y116.674 E126.29943
G1 X152.723 Y117.216 E126.36365
G1 X152.253 Y117.706 E126.42782
G1 X151.728 Y118.137 E126.49201
G1 X151.156 Y118.504 E126.55623
G1 X150.545 Y118.801 E126.62043
G1 X149.903 Y119.025 E126.68469
G1 X149.24 Y119.171 E126.74884
G1 X148.33 Y119.243 E126.8351
G1 X74.67 Y119.243 E133.79597
G1 X73.992 Y119.203 E133.86016
G1 X73.323 Y119.084 E133.92437
G1 X72.673 Y118.887 E133.98855
G1 X72.05 Y118.615 E134.05279
G1 X71.464 Y118.271 E134.11701
G1 X70.922 Y117.861 E134.18123
G1 X70.432 Y117.391 E134.24539
G1 X70.001 Y116.866 E134.30958
G1 X69.634 Y116.294 E134.3738
G1 X69.337 Y115.683 E134.438
G1 X69.113 Y115.041 E134.50226
G1 X68.967 Y114.378 E134.56641
G1 X68.895 Y113.468 E134.65268
G1 X68.895 Y105.848 E135.37277
G1 X68.935 Y105.17 E135.43695
G1 X69.054 Y104.501 E135.50116
G1 X69.251 Y103.851 E135.56535
G1 X69.523 Y103.228 E135.62959
G1 X69.867 Y102.642 E135.6938
G1 X70.277 Y102.1 E135.75802
G1 X70.747 Y101.61 E135.82219
G1 X71.272 Y101.179 E135.88638
G0 F4500 X71.09 Y101.772
G1 F1800 X71.611 Y101.368 E135.94868
G1 X72.176 Y101.03 E136.0109
G1 X72.778 Y100.764 E136.07309
G1 X73.408 Y100.572 E136.13533
G1 X74.056 Y100.458 E136.19751
G1 X74.67 Y100.423 E136.25562
G1 X148.33 Y100.423 E143.21649
G1 X148.987 Y100.463 E143.27869
G1 X149.635 Y100.582 E143.34095
G1 X150.263 Y100.779 E143.40315
G1 X150.863 Y101.051 E143.46541
G1 X151.426 Y101.393 E143.52766
G1 X151.943 Y101.801 E143.58989
G1 X152.406 Y102.268 E143.65204
G1 X152.81 Y102.789 E143.71434
G1 X153.148 Y103.354 E143.77656
G1 X153.414 Y103.956 E143.83875
G1 X153.606 Y104.586 E143.90099
G1 X153.72 Y105.234 E143.96317
G1 X153.755 Y105.848 E144.02129
G1 X153.755 Y113.468 E144.74138
G1 X153.715 Y114.125 E144.80358
G1 X153.596 Y114.773 E144.86584
G1 X153.399 Y115.401 E144.92804
G1 X153.127 Y116.001 E144.99029
G1 X152.785 Y116.564 E145.05254
G1 X152.377 Y117.081 E145.11478
G1 X151.91 Y117.544 E145.17692
G1 X151.389 Y117.948 E145.23922
G1 X150.824 Y118.286 E145.30144
G1 X150.222 Y118.552 E145.36364
G1 X149.592 Y118.744 E145.42588
G1 X148.944 Y118.858 E145.48805
G1 X148.33 Y118.893 E145.54617
G1 X74.67 Y118.893 E152.50704
G1 X74.013 Y118.853 E152.56924
G1 X73.365 Y118.734 E152.6315
G1 X72.737 Y118.537 E152.6937
G1 X72.137 Y118.265 E152.75595
G1 X71.574 Y117.923 E152.8182
G1 X71.057 Y117.515 E152.88044
G1 X70.594 Y117.048 E152.94258
G1 X70.19 Y116.527 E153.00489
G1 X69.852 Y115.962 E153.0671
G1 X69.586 Y115.36 E153.1293
G1 X69.394 Y114.73 E153.19154
G1 X69.28 Y114.082 E153.25371
G1 X69.245 Y113.468 E153.31183
G1 X69.245 Y105.848 E154.03192
G1 X69.285 Y105.191 E154.09412
G1 X69.404 Y104.543 E154.15638
G1 X69.601 Y103.915 E154.21858
G1 X69.873 Y103.315 E154.28083
G1 X70.215 Y102.752 E154.34309
G1 X70.623 Y102.235 E154.40532
G1 X71.09 Y101.772 E154.46747
G0 F4500 X71.433 Y101.94
G1 F1800 X71.948 Y101.565 E154.52767
G1 X72.505 Y101.258 E154.58777
G1 X73.097 Y101.023 E154.64796
G1 X73.714 Y100.864 E154.70817
G1 X74.346 Y100.783 E154.76839
G1 X74.67 Y100.773 E154.79902
G1 X148.33 Y100.773 E161.75989
G1 X148.966 Y100.813 E161.82011
G1 X149.591 Y100.932 E161.88023
G1 X150.197 Y101.129 E161.94045
G1 X150.773 Y101.4 E162.00061
G1 X151.311 Y101.741 E162.0608
G1 X151.802 Y102.147 E162.12101
G1 X152.238 Y102.611 E162.18118
G1 X152.613 Y103.126 E162.24138
G1 X152.92 Y103.683 E162.30148
G1 X153.155 Y104.275 E162.36167
G1 X153.314 Y104.892 E162.42188
G1 X153.395 Y105.524 E162.48209
